src/img/doctor_male.svg

<svg width="128" height="128" viewBox="0 0 128 128" fill="none" xmlns="http://www.w3.org/2000/svg">
<mask id="mask0" mask-type="alpha" maskUnits="userSpaceOnUse" x="0" y="0" width="128" height="128">
<circle cx="64" cy="64" r="64" fill="#E0E2EB"/>
</mask>
<g mask="url(#mask0)">
<path d="M35.4517 53.0001C35.4517 53.0001 30.3925 37.3929 43.2012 31.2178C56.0199 25.0526 89.4268 30.8991 89.4268 30.8991C89.4268 30.8991 93.3317 52.8706 89.1959 55.739C85.0703 58.6075 35.4517 53.0001 35.4517 53.0001Z" fill="#A9ACBC"/>
<path d="M43.0921 61.6833C44.0914 57.4975 41.4815 53.3004 37.2628 52.3089C33.0441 51.3174 28.8141 53.9069 27.8148 58.0928C26.8155 62.2786 29.4253 66.4756 33.644 67.4672C37.8628 68.4587 42.0928 65.8691 43.0921 61.6833Z" fill="#E0E2EB"/>
<path d="M96.7428 67.0903C100.751 65.4519 102.662 60.8995 101.011 56.9223C99.3595 52.9451 94.7713 51.0491 90.7628 52.6876C86.7544 54.3261 84.8436 58.8785 86.4949 62.8557C88.1462 66.8329 92.7344 68.7288 96.7428 67.0903Z" fill="#E0E2EB"/>
<path d="M74.7407 88.1697L73.4157 70.8594L59.7939 72.7119L57.5654 98.01C62.0625 97.4822 69.3803 95.4404 74.7407 88.1697Z" fill="#E0E2EB"/>
<path d="M85.5517 68.1799C84.7989 69.8134 84.3973 71.6161 83.5341 73.1898C81.1851 77.4626 75.6541 79.2354 71.2173 77.1538C69.9123 76.5463 68.7278 75.6299 67.3024 75.371C65.9974 75.132 64.5921 75.5104 63.5883 76.3769C62.7451 77.104 62.1729 78.1398 61.2092 78.6876C60.5266 79.0661 59.7135 79.1557 58.9306 79.1657C54.8049 79.2055 51.3317 77.3132 48.9727 74.0264C46.8346 71.0484 45.4895 67.5126 42.8796 64.8733C41.4642 63.439 39.7376 62.3634 37.981 61.3574C38.001 61.5566 38.0211 61.7558 38.0512 61.965C38.9647 70.142 42.8997 77.2534 50.3781 81.2075C57.8766 85.1715 68.0854 86.5858 76.0657 83.319C82.2492 80.7892 87.0273 76.2973 89.4666 70.2217C90.3801 67.9409 91.0024 65.4609 91.404 62.8813C88.8643 63.6382 86.686 65.7398 85.5517 68.1799Z" fill="#E0E2EB"/>
<path d="M91.906 47.0354C90.5107 19.3868 67.8144 19.7951 67.8144 19.7951C67.8144 19.7951 37.5394 17.4844 37.6498 52.4735C37.4089 56.3977 37.5695 57.7224 37.971 61.3777C39.7277 62.3836 41.4543 63.4593 42.8697 64.8935C46.6038 68.6683 47.9289 74.6243 52.436 77.4629C54.2529 78.6083 56.4312 79.1063 58.5793 79.166C59.6334 79.1959 60.7476 79.1063 61.6008 78.4888C62.2433 78.0206 62.6548 77.2936 63.2069 76.7159C64.291 75.5904 65.9775 75.0825 67.5033 75.4211C68.8383 75.71 69.9626 76.5665 71.1873 77.1541C73.3354 78.18 75.8851 78.3493 78.1537 77.6222C80.4224 76.8952 82.3898 75.2817 83.5342 73.2001C84.4075 71.6164 84.799 69.8237 85.5518 68.1902C86.6761 65.7501 88.8644 63.6485 91.394 62.9215C92.2172 57.6626 92.1569 52.0453 91.906 47.0354Z" fill="#E0E2EB"/>
<path d="M14 151C14 151 23.8374 102 66.1582 102C108.479 102 114 151 114 151H14Z" fill="#A9ACBC"/>
<path d="M57.5658 98.0203L56.582 109.155C56.582 109.155 57.0639 108.916 66.1484 109.972C75.2229 111.028 75.8753 103.04 75.8753 103.04L74.731 88.1699C69.3807 95.4406 62.0629 97.4824 57.5658 98.0203Z" fill="#E0E2EB"/>
<path d="M91.0428 51.7156C87.2785 50.6997 84.3975 31.258 78.1237 30.9393C71.8498 30.6106 51.3921 50.3112 40.0791 41.3772C28.7761 32.4332 31.0347 21.2184 33.1829 20.3618C35.3411 19.5053 36.1943 24.9534 36.1943 24.9534C36.1943 24.9534 35.5418 18.9675 37.9711 18.5392C40.4003 18.1109 40.7215 23.7781 40.7215 23.7781C40.7215 23.7781 39.3062 16.836 43.3013 16.7265C47.2965 16.6169 45.1383 23.4594 45.1383 23.4594C45.1383 23.4594 71.5688 7.20483 79.519 19.7643C96.2024 23.2104 94.8171 52.7215 91.0428 51.7156Z" fill="#A9ACBC"/>
<path d="M79.1475 20.6808C79.1475 20.6808 80.1714 15.153 81.5466 15.0036C82.9218 14.8443 80.342 19.9637 80.342 19.9637C80.342 19.9637 82.6909 16.9657 83.3735 17.8422C84.0762 18.7087 80.342 21.4377 79.1475 20.6808Z" fill="#A9ACBC"/>
<path d="M57.2144 102.014L66.1484 109.962L61.1192 119.703C61.1192 119.703 52.4664 112.92 52.888 103.837C57.7565 95.8289 57.5156 98.5181 57.5156 98.5181L57.2144 102.014Z" fill="#75798A"/>
<path d="M75.6543 102.014L66.1582 109.962L71.7495 119.703C71.7495 119.703 80.4023 112.92 79.9807 103.837C75.1122 95.8289 75.3531 98.5181 75.3531 98.5181L75.6543 102.014Z" fill="#75798A"/>
</g>
</svg>

<svg fill="none" xmlns="http://www.w3.org/2000/svg" viewBox="0 0 128 128"><mask id="a" maskUnits="userSpaceOnUse" x="0" y="0" width="128" height="128"><circle cx="64" cy="64" r="64" fill="#E0E2EB"/></mask><g mask="url(#a)"><path d="M35.5 53s-5.1-15.6 7.7-21.8C56 25.1 89.4 31 89.4 31s4 22-.2 24.8c-4.1 3-53.7-2.7-53.7-2.7z" fill="#A9ACBC"/><path d="M43 61.7c1-4.2-1.5-8.4-5.7-9.4a7.8 7.8 0 10-3.6 15.2c4.2 1 8.4-1.6 9.4-5.8zM96.7 67c4-1.5 6-6.1 4.3-10a7.9 7.9 0 00-10.2-4.3c-4 1.6-6 6.2-4.3 10.2 1.6 4 6.2 5.8 10.2 4.2zM74.7 88.2l-1.3-17.3-13.6 1.8L57.6 98c4.5-.5 11.8-2.6 17.1-9.8z" fill="#E0E2EB"/><path d="M85.6 68.2c-.8 1.6-1.2 3.4-2 5a9.6 9.6 0 01-12.4 4c-1.3-.7-2.5-1.6-3.9-1.8-1.3-.3-2.7.1-3.7 1-.9.7-1.4 1.7-2.4 2.3-.7.4-1.5.5-2.3.5-4.1 0-7.6-1.9-10-5.2-2-3-3.4-6.5-6-9.1a22.3 22.3 0 00-5-3.5l.2.6c.9 8.1 4.8 15.3 12.3 19.2A32 32 0 0076 83.3c6.1-2.5 11-7 13.4-13 .9-2.4 1.5-4.8 1.9-7.4a9.9 9.9 0 00-5.8 5.3z" fill="#E0E2EB"/><path d="M92 47c-1.5-27.6-24.2-27.2-24.2-27.2s-30.3-2.3-30.2 32.7c-.2 3.9 0 5.2.4 8.9 1.7 1 3.5 2 4.9 3.5 3.7 3.8 5 9.7 9.5 12.6 1.9 1.1 4 1.6 6.2 1.7 1 0 2.1 0 3-.7.6-.5 1-1.2 1.6-1.8 1-1.1 2.8-1.6 4.3-1.3 1.3.3 2.5 1.2 3.7 1.8a9.5 9.5 0 0012.3-4c1-1.6 1.3-3.4 2-5a9.7 9.7 0 015.9-5.3c.8-5.2.8-10.9.5-15.9z" fill="#E0E2EB"/><path d="M14 151s9.8-49 52.2-49c42.3 0 47.8 49 47.8 49H14z" fill="#A9ACBC"/><path d="M57.6 98l-1 11.2s.5-.3 9.5.8c9.1 1 9.8-7 9.8-7l-1.2-14.8A24.6 24.6 0 0157.6 98z" fill="#E0E2EB"/><path d="M91 51.7c-3.7-1-6.6-20.4-12.9-20.8-6.3-.3-26.7 19.4-38 10.5-11.3-9-9-20.2-7-21 2.2-.9 3 4.6 3 4.6s-.6-6 1.9-6.5c2.4-.4 2.7 5.3 2.7 5.3s-1.4-7 2.6-7c4-.2 1.8 6.7 1.8 6.7s26.5-16.3 34.4-3.7c16.7 3.4 15.3 33 11.5 32z" fill="#A9ACBC"/><path d="M79.1 20.7s1-5.5 2.4-5.7c1.4-.2-1.2 5-1.2 5s2.4-3 3-2.2c.8 1-3 3.6-4.2 2.9z" fill="#A9ACBC"/><path d="M57.2 102l9 8-5 9.7s-8.7-6.8-8.3-15.9c4.9-8 4.6-5.3 4.6-5.3l-.3 3.5zM75.7 102l-9.5 8 5.5 9.7s8.7-6.8 8.3-15.9c-4.9-8-4.6-5.3-4.6-5.3l.3 3.5z" fill="#75798A"/></g></svg>
